X: 031
Q: "Slow"
M: 6/8
L: 1/8
K: G
V: 1
|: {DE}~F>ED {D}CB,A, | GAB ~A3 | dAF T(B/A/)(B/c/).d | A/d/c/B/A/G/ ~F3 | .F.G.A .B.c.d |
fdc TB>cd | dAF (B/d/)c/B/A | AdF D3 :: (CDE) G/F/~E/D/A | (d/c/)d/f/B/d/ c/B/A/G/F |
V: 2 clef=bass middle=d
|: def g3 | b2g fad' | f2d g3 | a2A dfa | def gab |
d'2f g3 | f2d g2z | a2A d3 :: A3 d3 | f2^g ac'd' |
d2^d e2f | g2a d3 | f2d g2e | a2A d3 :|


